src/components/00-materials/images-raw/Change Investments.svg

<svg width="96" height="96" viewBox="0 0 96 96" fill="none" xmlns="http://www.w3.org/2000/svg">
<path d="M43.0059 81.081C45.8984 84.5877 49.6293 87.3074 53.8529 88.9879C58.0765 90.6685 62.6561 91.2555 67.167 90.6945C71.6779 90.1335 75.9742 88.4427 79.6575 85.7788C83.3408 83.1149 86.2919 79.5642 88.2373 75.4559C90.1827 71.3475 91.0593 66.8145 90.7859 62.2771C90.5126 57.7396 89.098 53.3447 86.6735 49.4996C84.2489 45.6545 80.8928 42.4838 76.9163 40.2815C72.9398 38.0791 68.4716 36.9164 63.9259 36.901C62.0882 36.899 60.2552 37.0867 58.4559 37.461C57.3914 42.6309 54.8349 47.3754 51.1026 51.1077C47.3703 54.84 42.6258 57.3965 37.4559 58.461C36.3 64.0564 36.944 69.874 39.2959 75.081M52.8459 14.841C48.4898 9.5491 42.2841 6.11198 35.4873 5.22672C28.6905 4.34145 21.8114 6.0743 16.2451 10.0739C10.6788 14.0734 6.84196 20.0402 5.51269 26.7643C4.18342 33.4884 5.46123 40.4664 9.08698 46.2831C12.7127 52.0998 18.415 56.3198 25.0374 58.0874C31.6598 59.8549 38.7065 59.0377 44.7486 55.8013C50.7906 52.565 55.3757 47.1519 57.5739 40.6597C59.7721 34.1676 59.4189 27.0824 56.5859 20.841L52.8459 14.841Z" stroke="#00008F" stroke-width="2" stroke-linecap="round" stroke-linejoin="round"/>
<path d="M43.0159 88.501V81.131H50.3859M52.8359 7.42102V14.791H45.4659M31.9559 14.791V49.191M24.4359 40.351C25.0459 43.191 28.1659 45.351 31.9559 45.351C36.1759 45.351 39.5959 42.651 39.5959 39.351C39.5881 38.82 39.4724 38.296 39.2559 37.811C38.7373 36.7596 37.9288 35.8783 36.9259 35.271L31.9259 31.961L26.9259 28.681C25.9316 28.0724 25.1332 27.1907 24.6259 26.141C24.4063 25.6567 24.2872 25.1327 24.2759 24.601C24.2759 21.281 27.7059 18.601 31.9259 18.601C35.7059 18.601 38.8359 20.771 39.4359 23.601M63.8959 50.171V77.691M57.9259 70.621C58.4159 72.901 60.9259 74.621 63.9259 74.621C67.3059 74.621 70.0459 72.471 70.0459 69.811C70.0388 69.3861 69.9434 68.9672 69.7659 68.581C69.359 67.7504 68.7199 67.0556 67.9259 66.581L63.9259 63.961L59.9259 61.341C59.137 60.8603 58.4993 60.1672 58.0859 59.341C57.9113 58.9578 57.8193 58.5421 57.8159 58.121C57.8159 55.461 60.5459 53.301 63.9259 53.301C66.9259 53.301 69.4559 55.041 69.9259 57.301" stroke="#00008F" stroke-width="2" stroke-linecap="round" stroke-linejoin="round"/>
</svg>

<svg width="96" height="96" viewBox="0 0 96 96" fill="none" xmlns="http://www.w3.org/2000/svg"><path d="M43.006 81.081a27 27 0 1020.92-44.18 26.715 26.715 0 00-5.47.56 27 27 0 01-21 21 27.07 27.07 0 001.84 16.62m13.55-60.24a27 27 0 103.74 6l-3.74-6z" stroke="#00008F" stroke-width="2" stroke-linecap="round" stroke-linejoin="round"/><path d="M43.016 88.501v-7.37h7.37m2.45-73.71v7.37h-7.37m-13.51 0v34.4m-7.52-8.84c.61 2.84 3.73 5 7.52 5 4.22 0 7.64-2.7 7.64-6a3.92 3.92 0 00-.34-1.54 6.15 6.15 0 00-2.33-2.54l-5-3.31-5-3.28a6.08 6.08 0 01-2.3-2.54 3.932 3.932 0 01-.35-1.54c0-3.32 3.43-6 7.65-6 3.78 0 6.91 2.17 7.51 5m24.46 26.57v27.52m-5.97-7.07c.49 2.28 3 4 6 4 3.38 0 6.12-2.15 6.12-4.81a3.068 3.068 0 00-.28-1.23 4.78 4.78 0 00-1.84-2l-4-2.62-4-2.62a4.92 4.92 0 01-1.84-2 3 3 0 01-.27-1.22c0-2.66 2.73-4.82 6.11-4.82 3 0 5.53 1.74 6 4" stroke="#00008F" stroke-width="2" stroke-linecap="round" stroke-linejoin="round"/></svg>
